X: 11
M:4/4
L:1/8
K:D
a/e/f/(d/ d)(f/g/)|a/e/f/(d/ d2)|G/A/B/d/ e/d/e|=f/^f/=f/^f/ d/B/A|
(FF)(A/B/)|c/e/c/(A/ A)(A/B/)|c/e/c/(A/ A2)|=f/^f/=f/^f/ d/B/A/F/|1
([F2d2] [F2d2]):|2 df (d'2|d'2)z2||



